X: 112
T:Wind that Shakes the Barley, The
M:C|
R:Reel
Z:As played by the Ceili band  something out of O'Neill's
K:D
(3ABA FB AFED|~B3A BcdB|A2AB AFED|1 gfed BcdB:|2 gfed Bcde |:\
f2fd g2gd|f2fd Bcde|f2fd g2gf|1 aged Bcde:|2 aged BcdB||
